assets/Biting lip/Flat/biting_lip_flat.svg

<svg width="32" height="32" viewBox="0 0 32 32" fill="none" xmlns="http://www.w3.org/2000/svg">
<path d="M4.5069 16.9922H27.3148V20.385L22.2564 24.4563L4.5069 20.385V16.9922Z" fill="#533566"/>
<path d="M26.4531 13.875C26.8829 14.5938 28.9219 17.8438 29.2031 18.2969C29.4844 18.75 29.7162 20.0942 29.2031 20.875C27.4062 23.6094 25.3822 25.0181 23.3125 25.8438C22.3205 26.2395 19.5625 26.8438 17.4375 26.8438C15.3447 26.8438 8.15969 25.3282 2.27077 20.1924C2.09789 20.0416 2.00002 19.8636 2.00001 19.6342V19.6342C2 19.4769 2.04591 19.2814 2.13208 19.1498L5.55403 13.9265C5.79288 13.4313 6.56769 12.3885 6.56769 12.3885C7.83184 10.9263 9.70186 10 11.7874 10C13.3662 9.99422 14.8226 10.5302 15.9877 11.4157C17.1528 10.5302 18.6092 9.99422 20.188 10C22.2735 10 24.1494 10.9321 25.4135 12.3944C25.4135 12.3944 26.0233 13.1562 26.4531 13.875ZM5.40746 19.6073C5.17012 19.6879 5.32881 19.9529 5.57944 19.9529H14.2386L20.9705 22.4268C21.8563 22.7523 22.8443 22.6361 23.6304 22.1138L26.6596 20.1012C26.7991 20.0086 26.8978 19.8294 26.7737 19.717C26.706 19.6555 26.6246 19.6226 26.5851 19.6091L24.487 18.8969C18.8589 18.8969 12.5 18.8969 7.5 18.8969L5.40746 19.6073V19.6073Z" fill="#F92F60"/>
<path d="M7.41132 18.9268L8.65328 18.5052C13.4128 16.8915 18.5743 16.8915 23.3338 18.5052L24.5787 18.9278L24.3247 19.4712C24.1182 19.8702 23.7254 20.137 23.2777 20.1754C21.8596 20.2973 18.6062 20.3574 16.0143 20.3593C15.769 20.3592 15.5236 20.3594 15.2782 20.3596C13.09 20.3612 10.9009 20.3628 8.72187 20.1754C8.27424 20.137 7.88137 19.8702 7.67487 19.4712L7.41132 18.9268Z" fill="#F3EEF8"/>
</svg>

<svg xmlns="http://www.w3.org/2000/svg" width="32" height="32" fill="none"><path fill="#533566" d="M4.507 16.992h22.808v3.393l-5.059 4.071-17.75-4.071v-3.393Z"/><path fill="#F92F60" d="M26.453 13.875c.43.719 2.469 3.969 2.75 4.422.281.453.513 1.797 0 2.578-1.797 2.734-3.82 4.143-5.89 4.969-.992.395-3.75 1-5.875 1-2.093 0-9.278-1.516-15.167-6.652-.173-.15-.271-.328-.271-.558 0-.157.046-.353.132-.484l3.422-5.223c.239-.496 1.014-1.538 1.014-1.538A6.883 6.883 0 0 1 11.788 10a6.886 6.886 0 0 1 4.2 1.416 6.886 6.886 0 0 1 4.2-1.416 6.9 6.9 0 0 1 5.226 2.394s.61.762 1.04 1.481ZM5.407 19.607c-.237.08-.078.346.172.346h8.66l6.732 2.474c.885.325 1.873.21 2.66-.313L26.66 20.1c.14-.092.238-.272.114-.384a.559.559 0 0 0-.189-.108l-2.098-.712H7.5l-2.093.71Z"/><path fill="#F3EEF8" d="m7.411 18.927 1.242-.422a22.864 22.864 0 0 1 14.68 0l1.246.423-.254.543c-.207.4-.6.666-1.047.704-1.418.122-4.672.182-7.264.184h-.736c-2.188.002-4.377.004-6.556-.184a1.305 1.305 0 0 1-1.047-.704l-.264-.544Z"/></svg>
